X: 32067
T: Penicuik, The
R: hornpipe
M: 4/4
K: Gmajor
g2 g>f g>dB>g|e>cA>F G>BD>G|F2 (3GAB c>ea>g|f>da>g (3fga d>f|
g>ba>f g>d (3Bcd|e>c (3AGF G2 D>G|F>GA>B (3cBA F>A|G2 D2 G2:|
(3aba a>g f>d (3fga|b2 b>a g>Be>f|(3gag (3agf ed^ce|(3ded ^ce d2 (3ABc|
d2 (3Bcd g2 B>d|c>BA>c E>Ac>e|a>gf>e d2 (3c'ba|g2 d2 G2:|
~|a2 (3gfe d2 (3cBA|G2 (3ggg G2:|

